assets/img/ods/SDG-17.svg

<svg width="720" height="720" viewBox="0 0 720 720" fill="none" xmlns="http://www.w3.org/2000/svg">
<g clip-path="url(#clip0_342_33)">
<path d="M-1.08008 -1.08008H721.08V721.08H-1.08008V-1.08008Z" fill="#BBBBBB"/>
<path d="M50.12 88.93C46 91.14 34.31 94.37 30.23 96.41V76.86C35.67 74.65 50.8 67.34 55.9 61.73H76.47V199.43H50.12V88.93Z" fill="white"/>
<path d="M113.36 81.79H76V61.73H139V78.9L110 199.43H84.46L113.36 81.79ZM183.73 61.63H199.2C208.63 61.63 212.66 67.09 212.66 76.58C212.66 86.91 207.07 90.88 198.55 90.88H193.29V114.28H183.73V61.63ZM197 84.12C202.27 84.12 203.63 82.12 203.63 76.51C203.63 70.9 202.92 68.39 197 68.39H193.3V84.12H197ZM221.69 61.63H232L242.53 114.28H233.63L231.55 102.12H222.38L220.24 114.28H211.24L221.69 61.63ZM230.47 96L226.89 73.9L223.32 96H230.47ZM246.33 61.63H259C269.53 61.63 275.51 65.01 275.51 75.63C275.51 81.94 273.95 86.36 269.01 88.37L276.36 114.31H266.74L260.43 90.19H255.88V114.31H246.33V61.63ZM258.94 84.18C264.46 84.18 266.48 81.78 266.48 76.12C266.48 70.79 264.98 68.19 259.48 68.19H255.9V84.19L258.94 84.18ZM280.25 97.44V78.66C280.25 67.87 283.7 61.04 295.25 61.04C306.04 61.04 309.49 67.04 309.49 76.19V80.61H300.26V76.06C300.26 71.64 300.19 68.06 295.32 68.06C290.45 68.06 289.92 71.83 289.92 76.64V99.46C289.92 105.18 291.09 107.91 295.32 107.91C300.06 107.91 300.26 104.2 300.26 99.52V94.78H309.49V99C309.49 108.3 306.36 115 295.25 115C283.7 115 280.25 107.71 280.25 97.44ZM314.77 61.63H336.87V68.39H324.32V83.53H334.2V90.23H324.32V107.71H337V114.28H314.77V61.63ZM341.16 61.63H353.83C364.36 61.63 370.34 65.01 370.34 75.63C370.34 81.94 368.78 86.36 363.84 88.37L371.19 114.31H361.57L355.26 90.19H350.71V114.31H341.16V61.63ZM353.77 84.18C359.29 84.18 361.31 81.78 361.31 76.12C361.31 70.79 359.81 68.19 354.31 68.19H350.73V84.19L353.77 84.18ZM376.45 61.63H385.94V114.28H376.45V61.63ZM400.5 61.63H410.77L421.3 114.28H412.4L410.32 102.12H401.15L399 114.28H390L400.5 61.63ZM409.28 96L405.7 73.9L402.13 96H409.28ZM423.58 98.94L431.83 97.31C432.09 103.55 433.59 107.58 437.83 107.58C440.89 107.58 442.19 105.5 442.19 102.64C442.19 98.09 439.85 95.56 436.4 92.57L429.77 86.78C426 83.53 423.66 79.89 423.66 74.04C423.66 65.72 428.86 61.04 437.25 61.04C447.13 61.04 449.92 67.67 450.44 75.34L442.19 76.77C441.99 71.83 441.28 68.13 437.05 68.13C434.19 68.13 432.63 70.27 432.63 73.07C432.63 76.64 434.13 78.59 436.92 81L443.49 86.78C447.78 90.49 451.35 95.1 451.35 102.06C451.35 109.66 446.02 114.99 438.16 114.99C428.52 115 424 109.4 423.58 98.94ZM469.92 61.63H492V68.39H479.48V83.53H489.36V90.23H479.48V107.71H492.15V114.28H469.92V61.63ZM511.46 61.63H521.4L528.88 98.09L536.61 61.63H546.3L547.3 114.28H540.15L539.37 77.68L531.9 114.28H526.11L518.51 77.55L517.79 114.28H510.58L511.46 61.63ZM553.64 61.63H575.74V68.39H563.2V83.53H573.08V90.23H563.2V107.71H575.87V114.28H553.64V61.63ZM580.29 61.63H589.78V114.28H580.29V61.63ZM595.63 97.77V78C595.63 67.34 599.53 61 610.84 61C622.15 61 626 67.35 626 78V97.77C626 108.36 622.1 114.99 610.85 114.99C599.6 114.99 595.63 108.43 595.63 97.77ZM616.24 100V75.8C616.24 71.38 615.52 68.06 610.84 68.06C606.16 68.06 605.38 71.38 605.38 75.8V100C605.38 104.36 606.09 107.87 610.84 107.87C615.59 107.87 616.24 104.4 616.24 100ZM630.34 98.94L638.59 97.31C638.85 103.55 640.35 107.58 644.59 107.58C647.65 107.58 648.95 105.5 648.95 102.64C648.95 98.09 646.61 95.56 643.16 92.57L636.53 86.78C632.76 83.53 630.42 79.89 630.42 74.04C630.42 65.72 635.62 61.04 644.01 61.04C653.89 61.04 656.68 67.67 657.2 75.34L648.95 76.77C648.75 71.83 648.04 68.13 643.81 68.13C640.95 68.13 639.39 70.27 639.39 73.07C639.39 76.64 640.89 78.59 643.68 81L650.25 86.78C654.54 90.49 658.11 95.1 658.11 102.06C658.11 109.66 652.78 114.99 644.92 114.99C635.28 115 630.73 109.4 630.34 98.94ZM183.73 147.63H196.15C208.95 147.63 212.85 152.76 212.85 164.01V183.18C212.85 194.75 208.85 200.28 196.54 200.28H183.73V147.63ZM196.28 193.63C202.84 193.63 203.1 190.12 203.1 183.56V163.36C203.1 157.05 202.45 154.45 196.15 154.45H193.29V193.58L196.28 193.63ZM218.51 147.63H240.61V154.39H228.06V169.53H237.94V176.23H228.06V193.71H240.74V200.28H218.51V147.63ZM259.52 147.63H269V200.28H259.51L259.52 147.63ZM276.48 147.63H286.43L293.91 184.09L301.64 147.63H311.33L312.33 200.28H305.18L304.4 163.68L296.92 200.28H291.14L283.54 163.55L282.82 200.28H275.6L276.48 147.63ZM318.67 147.63H334.14C343.57 147.63 347.59 153.09 347.59 162.63C347.59 172.96 342.01 176.93 333.49 176.93H328.22V200.33H318.67V147.63ZM331.93 170.12C337.19 170.12 338.56 168.12 338.56 162.51C338.56 156.9 337.84 154.39 331.93 154.39H328.22V170.12H331.93ZM351.49 147.63H361.05V193.71H373.85V200.28H351.49V147.63ZM377.43 147.63H399.53V154.39H387V169.53H396.88V176.23H387V193.71H399.68V200.28H377.43V147.63ZM404.6 147.63H414.54L422 184.09L429.73 147.63H439.42L440.42 200.28H433.27L432.49 163.68L425 200.28H419.21L411.61 163.55L410.89 200.28H403.68L404.6 147.63ZM446.78 147.63H468.88V154.39H456.34V169.53H466.22V176.23H456.34V193.71H469V200.28H446.78V147.63ZM473.17 147.63H479.87L492.67 177.63V147.63H500.6V200.28H494.23L481.36 168.82V200.28H473.17V147.63ZM512.43 154.71H504.05V147.63H530.24V154.71H522.05V200.28H512.43V154.71ZM540.19 147.63H550.46L561 200.28H552.09L550 188.12H540.84L538.69 200.28H529.69L540.19 147.63ZM549 182L545.43 159.9L541.81 182H549ZM583.67 166.61V162.06C583.67 157.64 583.61 154.06 578.73 154.06C573.85 154.06 573.34 157.83 573.34 162.64V185.46C573.34 191.18 574.51 193.91 578.73 193.91C583.48 193.91 583.67 190.2 583.67 185.52V180.78H592.9V185C592.9 193.91 590.04 200.47 579.97 201V204.25C584.78 204.25 588.03 206.4 588.03 210.43C588.03 215.04 583.93 216.99 579.19 216.99C577.604 216.974 576.029 216.735 574.51 216.28V212.18C575.646 212.534 576.83 212.709 578.02 212.7C580.29 212.7 582.02 212.05 582.02 210.3C582.02 207.96 579.36 207.11 576.3 206.79V200.87C566.68 199.87 563.69 192.94 563.69 183.45V164.66C563.69 153.87 567.14 147.04 578.69 147.04C589.48 147.04 592.92 153.04 592.92 162.19V166.61H583.67ZM606 147.63H616.3L626.83 200.28H617.93L615.85 188.12H606.68L604.54 200.28H595.54L606 147.63ZM608 137.68C606.31 137.68 605.72 138.68 605.72 140.35H601.17C601.17 135.67 602.47 132.16 606.7 132.16C609.88 132.16 612.03 135.16 614.82 135.16C616.32 135.16 616.9 134.25 616.9 132.56H621.19C621.19 136.65 620.48 140.75 616.25 140.75C612.92 140.74 610.71 137.68 608.05 137.68H608ZM614.81 182L611.23 159.9L607.66 182H614.81ZM629.3 183.77V164C629.3 153.34 633.2 147 644.51 147C655.82 147 659.66 153.31 659.66 164V183.76C659.66 194.35 655.76 200.98 644.51 200.98C633.26 200.98 629.3 194.43 629.3 183.77ZM649.91 186V161.8C649.91 157.38 649.19 154.06 644.51 154.06C639.83 154.06 639.05 157.38 639.05 161.8V186C639.05 190.36 639.77 193.87 644.51 193.87C649.25 193.87 649.91 190.4 649.91 186ZM544.38 437.25C544.351 412.803 534.859 389.317 517.895 371.714C500.93 354.112 477.809 343.76 453.38 342.83C446.87 324.401 434.806 308.445 418.85 297.158C402.893 285.872 383.83 279.811 364.285 279.811C344.74 279.811 325.677 285.872 309.72 297.158C293.764 308.445 281.7 324.401 275.19 342.83C255.817 343.531 237.129 350.178 221.665 361.869C206.201 373.559 194.709 389.726 188.752 408.174C182.795 426.622 182.661 446.456 188.368 464.983C194.074 483.51 205.345 499.831 220.65 511.73C215.234 530.424 215.726 550.334 222.059 568.738C228.393 587.141 240.258 603.138 256.031 614.539C271.805 625.941 290.716 632.19 310.177 632.432C329.638 632.674 348.698 626.896 364.75 615.89C380.813 626.624 399.782 632.174 419.097 631.789C438.413 631.405 457.146 625.105 472.769 613.74C488.392 602.375 500.153 586.491 506.465 568.232C512.778 549.973 513.338 530.217 508.07 511.63C519.376 502.806 528.522 491.521 534.814 478.633C541.105 465.744 544.377 451.592 544.38 437.25ZM439.74 374.25C439.711 392.318 433.205 409.776 421.401 423.455C409.597 437.134 393.279 446.127 375.41 448.8C373.802 438.971 374.173 428.92 376.502 419.236C378.83 409.552 383.069 400.431 388.97 392.408C394.871 384.384 402.314 377.62 410.864 372.512C419.414 367.403 428.898 364.054 438.76 362.66C439.393 366.492 439.727 370.367 439.76 374.25M364.65 591.35C357.453 584.39 351.718 576.064 347.779 566.86C343.841 557.656 341.779 547.758 341.713 537.747C341.648 527.736 343.581 517.812 347.4 508.557C351.218 499.303 356.845 490.903 363.95 483.85C371.147 490.81 376.882 499.136 380.821 508.34C384.759 517.544 386.821 527.442 386.887 537.453C386.952 547.464 385.019 557.388 381.2 566.643C377.382 575.897 371.755 584.297 364.65 591.35ZM289.8 362.69C299.666 364.076 309.156 367.421 317.71 372.527C326.265 377.634 333.713 384.399 339.615 392.426C345.517 400.452 349.755 409.578 352.079 419.266C354.404 428.954 354.768 439.009 353.15 448.84C343.284 447.454 333.794 444.109 325.24 439.003C316.685 433.896 309.237 427.131 303.335 419.104C297.433 411.078 293.195 401.952 290.871 392.264C288.546 382.576 288.182 372.521 289.8 362.69ZM346.07 471C341.621 479.949 335.433 487.921 327.866 494.451C320.3 500.98 311.508 505.935 302.004 509.026C292.5 512.117 282.476 513.283 272.516 512.454C262.557 511.625 252.862 508.819 244 504.2C248.449 495.251 254.637 487.279 262.204 480.749C269.77 474.22 278.562 469.265 288.066 466.174C297.57 463.083 307.594 461.917 317.554 462.746C327.513 463.574 337.208 466.381 346.07 471ZM382.25 470.49C391.16 465.813 400.917 462.971 410.945 462.133C420.973 461.294 431.067 462.476 440.63 465.608C450.192 468.74 459.03 473.758 466.619 480.367C474.207 486.975 480.393 495.038 484.81 504.08C475.901 508.761 466.143 511.606 456.114 512.447C446.086 513.288 435.99 512.107 426.426 508.975C416.862 505.842 408.024 500.822 400.436 494.211C392.848 487.601 386.664 479.534 382.25 470.49ZM364.25 298.83C378.945 298.845 393.317 303.146 405.605 311.207C417.893 319.267 427.563 330.737 433.43 344.21C418.491 346.879 404.411 353.095 392.373 362.335C380.335 371.575 370.69 383.569 364.25 397.31C357.818 383.567 348.178 371.571 336.143 362.33C324.107 353.089 310.028 346.875 295.09 344.21C300.956 330.74 310.623 319.272 322.906 311.212C335.19 303.152 349.558 298.849 364.25 298.83ZM203.21 437.25C203.238 418.648 210.127 400.71 222.558 386.872C234.989 373.033 252.088 364.266 270.58 362.25C270.064 366.253 269.8 370.284 269.79 374.32C269.785 387.465 272.529 400.466 277.845 412.488C283.161 424.511 290.933 435.288 300.66 444.13C285.526 445.882 271.038 451.259 258.425 459.805C245.812 468.351 235.447 479.814 228.21 493.22C220.35 486.172 214.062 477.549 209.755 467.911C205.448 458.273 203.218 447.837 203.21 437.28M235.94 538C235.938 532.743 236.491 527.501 237.59 522.36C251.177 528.933 266.144 532.15 281.232 531.739C296.321 531.329 311.09 527.303 324.3 520C321.491 534.848 322.302 550.155 326.667 564.622C331.031 579.09 338.819 592.292 349.37 603.11C337.917 609.828 324.892 613.4 311.615 613.462C298.337 613.525 285.279 610.076 273.764 603.466C262.248 596.856 252.685 587.32 246.042 575.823C239.4 564.326 235.915 551.278 235.94 538ZM492.63 537.38C492.635 550.571 489.177 563.531 482.603 574.966C476.028 586.402 466.566 595.91 455.164 602.542C443.762 609.174 430.819 612.697 417.629 612.758C404.438 612.819 391.463 609.416 380 602.89C396.633 585.38 405.905 562.151 405.9 538C405.89 531.931 405.301 525.877 404.14 519.92C417.384 527.277 432.206 531.333 447.35 531.746C462.495 532.158 477.515 528.915 491.14 522.29C492.158 527.255 492.671 532.311 492.67 537.38M428.52 443.58C438.075 434.753 445.699 424.043 450.912 412.125C456.125 400.207 458.814 387.338 458.81 374.33C458.8 370.294 458.536 366.263 458.02 362.26C472.468 363.81 486.16 369.506 497.445 378.66C508.73 387.814 517.126 400.036 521.623 413.854C526.12 427.672 526.526 442.495 522.79 456.538C519.055 470.58 511.338 483.243 500.57 493C493.413 479.569 483.124 468.062 470.575 459.452C458.026 450.842 443.586 445.384 428.48 443.54" fill="white"/>
</g>
<defs>
<clipPath id="clip0_342_33">
<rect width="720" height="720" fill="white"/>
</clipPath>
</defs>
</svg>

<svg xmlns="http://www.w3.org/2000/svg" viewBox="0 0 720 720"><defs><style>.cls-2{fill:#fff}</style></defs><path fill="#19486a" d="M-1.08-1.08h722.16v722.16H-1.08z" id="goal_background" data-name="goal background"/><g id="ENG_text_graphics" data-name="ENG text &amp; graphics"><path class="cls-2" d="M50.12 88.93c-4.12 2.21-15.81 5.44-19.89 7.48V76.86c5.44-2.21 20.57-9.52 25.67-15.13h20.57v137.7H50.12z"/><path class="cls-2" d="M113.36 81.79H76V61.73h63V78.9l-29 120.53H84.46zM183.73 61.63h15.47c9.43 0 13.46 5.46 13.46 14.95 0 10.33-5.59 14.3-14.11 14.3h-5.26v23.4h-9.56zM197 84.12c5.27 0 6.63-2 6.63-7.61s-.71-8.12-6.63-8.12h-3.7v15.73zM221.69 61.63H232l10.53 52.65h-8.9l-2.08-12.16h-9.17l-2.14 12.16h-9zM230.47 96l-3.58-22.1-3.57 22.1zM246.33 61.63H259c10.53 0 16.51 3.38 16.51 14 0 6.31-1.56 10.73-6.5 12.74l7.35 25.94h-9.62l-6.31-24.12h-4.55v24.12h-9.55zm12.61 22.55c5.52 0 7.54-2.4 7.54-8.06 0-5.33-1.5-7.93-7-7.93h-3.58v16zM280.25 97.44V78.66c0-10.79 3.45-17.62 15-17.62 10.79 0 14.24 6 14.24 15.15v4.42h-9.23v-4.55c0-4.42-.07-8-4.94-8s-5.4 3.77-5.4 8.58v22.82c0 5.72 1.17 8.45 5.4 8.45 4.74 0 4.94-3.71 4.94-8.39v-4.74h9.23V99c0 9.3-3.13 16-14.24 16-11.55 0-15-7.29-15-17.56zM314.77 61.63h22.1v6.76h-12.55v15.14h9.88v6.7h-9.88v17.48H337v6.57h-22.23zM341.16 61.63h12.67c10.53 0 16.51 3.38 16.51 14 0 6.31-1.56 10.73-6.5 12.74l7.35 25.94h-9.62l-6.31-24.12h-4.55v24.12h-9.55zm12.61 22.55c5.52 0 7.54-2.4 7.54-8.06 0-5.33-1.5-7.93-7-7.93h-3.58v16zM376.45 61.63h9.49v52.65h-9.49zM400.5 61.63h10.27l10.53 52.65h-8.9l-2.08-12.16h-9.17L399 114.28h-9zM409.28 96l-3.58-22.1-3.57 22.1zM423.58 98.94l8.25-1.63c.26 6.24 1.76 10.27 6 10.27 3.06 0 4.36-2.08 4.36-4.94 0-4.55-2.34-7.08-5.79-10.07l-6.63-5.79c-3.77-3.25-6.11-6.89-6.11-12.74 0-8.32 5.2-13 13.59-13 9.88 0 12.67 6.63 13.19 14.3l-8.25 1.43c-.2-4.94-.91-8.64-5.14-8.64-2.86 0-4.42 2.14-4.42 4.94 0 3.57 1.5 5.52 4.29 7.93l6.57 5.78c4.29 3.71 7.86 8.32 7.86 15.28 0 7.6-5.33 12.93-13.19 12.93-9.64.01-14.16-5.59-14.58-16.05zM469.92 61.63H492v6.76h-12.52v15.14h9.88v6.7h-9.88v17.48h12.67v6.57h-22.23zM511.46 61.63h9.94l7.48 36.46 7.73-36.46h9.69l1 52.65h-7.15l-.78-36.6-7.47 36.6h-5.79l-7.6-36.73-.72 36.73h-7.21zM553.64 61.63h22.1v6.76H563.2v15.14h9.88v6.7h-9.88v17.48h12.67v6.57h-22.23zM580.29 61.63h9.49v52.65h-9.49zM595.63 97.77V78c0-10.66 3.9-17 15.21-17S626 67.35 626 78v19.77c0 10.59-3.9 17.22-15.15 17.22s-15.22-6.56-15.22-17.22zm20.61 2.23V75.8c0-4.42-.72-7.74-5.4-7.74s-5.46 3.32-5.46 7.74V100c0 4.36.71 7.87 5.46 7.87s5.4-3.47 5.4-7.87zM630.34 98.94l8.25-1.63c.26 6.24 1.76 10.27 6 10.27 3.06 0 4.36-2.08 4.36-4.94 0-4.55-2.34-7.08-5.79-10.07l-6.63-5.79c-3.77-3.25-6.11-6.89-6.11-12.74 0-8.32 5.2-13 13.59-13 9.88 0 12.67 6.63 13.19 14.3l-8.25 1.43c-.2-4.94-.91-8.64-5.14-8.64-2.86 0-4.42 2.14-4.42 4.94 0 3.57 1.5 5.52 4.29 7.93l6.57 5.78c4.29 3.71 7.86 8.32 7.86 15.28 0 7.6-5.33 12.93-13.19 12.93-9.64.01-14.19-5.59-14.58-16.05zM183.73 147.63h12.42c12.8 0 16.7 5.13 16.7 16.38v19.17c0 11.57-4 17.1-16.31 17.1h-12.81zm12.55 46c6.56 0 6.82-3.51 6.82-10.07v-20.2c0-6.31-.65-8.91-6.95-8.91h-2.86v39.13zM218.51 147.63h22.1v6.76h-12.55v15.14h9.88v6.7h-9.88v17.48h12.68v6.57h-22.23zM259.52 147.63H269v52.65h-9.49zM276.48 147.63h9.95l7.48 36.46 7.73-36.46h9.69l1 52.65h-7.15l-.78-36.6-7.48 36.6h-5.78l-7.6-36.73-.72 36.73h-7.22zM318.67 147.63h15.47c9.43 0 13.45 5.46 13.45 15 0 10.33-5.58 14.3-14.1 14.3h-5.27v23.4h-9.55zm13.26 22.49c5.26 0 6.63-2 6.63-7.61s-.72-8.12-6.63-8.12h-3.71v15.73zM351.49 147.63h9.56v46.08h12.8v6.57h-22.36zM377.43 147.63h22.1v6.76H387v15.14h9.88v6.7H387v17.48h12.68v6.57h-22.25zM404.6 147.63h9.94l7.46 36.46 7.73-36.46h9.69l1 52.65h-7.15l-.78-36.6-7.49 36.6h-5.79l-7.6-36.73-.72 36.73h-7.21zM446.78 147.63h22.1v6.76h-12.54v15.14h9.88v6.7h-9.88v17.48H469v6.57h-22.22zM473.17 147.63h6.7l12.8 30v-30h7.93v52.65h-6.37l-12.87-31.46v31.46h-8.19zM512.43 154.71h-8.38v-7.08h26.19v7.08h-8.19v45.57h-9.62zM540.19 147.63h10.27L561 200.28h-8.91L550 188.12h-9.16l-2.15 12.16h-9zM549 182l-3.57-22.1-3.62 22.1zM583.67 166.61v-4.55c0-4.42-.06-8-4.94-8s-5.39 3.77-5.39 8.58v22.82c0 5.72 1.17 8.45 5.39 8.45 4.75 0 4.94-3.71 4.94-8.39v-4.74h9.23V185c0 8.91-2.86 15.47-12.93 16v3.25c4.81 0 8.06 2.15 8.06 6.18 0 4.61-4.1 6.56-8.84 6.56a16.87 16.87 0 01-4.68-.71v-4.1a11.51 11.51 0 003.51.52c2.27 0 4-.65 4-2.4 0-2.34-2.66-3.19-5.72-3.51v-5.92c-9.62-1-12.61-7.93-12.61-17.42v-18.79c0-10.79 3.45-17.62 15-17.62 10.79 0 14.23 6 14.23 15.15v4.42zM606 147.63h10.3l10.53 52.65h-8.9l-2.08-12.16h-9.17l-2.14 12.16h-9zm2-9.95c-1.69 0-2.28 1-2.28 2.67h-4.55c0-4.68 1.3-8.19 5.53-8.19 3.18 0 5.33 3 8.12 3 1.5 0 2.08-.91 2.08-2.6h4.29c0 4.09-.71 8.19-4.94 8.19-3.33-.01-5.54-3.07-8.2-3.07zm6.81 44.32l-3.58-22.1-3.57 22.1zM629.3 183.77V164c0-10.66 3.9-17 15.21-17s15.15 6.31 15.15 17v19.76c0 10.59-3.9 17.22-15.15 17.22s-15.21-6.55-15.21-17.21zm20.61 2.23v-24.2c0-4.42-.72-7.74-5.4-7.74s-5.46 3.32-5.46 7.74V186c0 4.36.72 7.87 5.46 7.87s5.4-3.47 5.4-7.87zM544.38 437.25a94.6 94.6 0 00-91-94.42 94.49 94.49 0 00-178.19 0 94.42 94.42 0 00-54.54 168.9 94.43 94.43 0 00144.1 104.16 94.43 94.43 0 00143.32-104.26 94.38 94.38 0 0036.31-74.38m-104.64-63a75.5 75.5 0 01-64.33 74.55 74.8 74.8 0 0163.35-86.14 75 75 0 011 11.59m-75.11 217.1a75.25 75.25 0 01-.7-107.5 75.25 75.25 0 01.7 107.5M289.8 362.69a74.74 74.74 0 0163.35 86.15 74.74 74.74 0 01-63.35-86.15M346.07 471A75.18 75.18 0 01244 504.2 75.18 75.18 0 01346.07 471m36.18-.51a75.23 75.23 0 01102.56 33.59 75.2 75.2 0 01-102.56-33.59m-18-171.66a75.54 75.54 0 0169.18 45.38 94.82 94.82 0 00-69.18 53.1 94.73 94.73 0 00-69.16-53.1 75.54 75.54 0 0169.16-45.38M203.21 437.25a75.56 75.56 0 0167.37-75 96.33 96.33 0 00-.79 12.07 94.29 94.29 0 0030.87 69.81 94.71 94.71 0 00-72.45 49.09 75.21 75.21 0 01-25-55.94M235.94 538a74.71 74.71 0 011.65-15.64A94.32 94.32 0 00324.3 520a94 94 0 0025.07 83.11A75.32 75.32 0 01235.94 538m256.69-.62A75.35 75.35 0 01380 602.89 94.19 94.19 0 00405.9 538a95.31 95.31 0 00-1.76-18.08 94.27 94.27 0 0087 2.37 75.06 75.06 0 011.53 15.09m-64.15-93.8a94.24 94.24 0 0030.29-69.25 96.33 96.33 0 00-.79-12.07A75.34 75.34 0 01500.57 493a94.69 94.69 0 00-72.09-49.46"/></g></svg>
